main-pages/gulp-scss-starter/dist/img/default/offer/services7.svg

<svg width="25" height="17" viewBox="0 0 25 17" fill="none" xmlns="http://www.w3.org/2000/svg">
<path d="M24.2188 9.76562H22.6562V8.98438H21.0938V8.39844L19.2707 7.03125H17.9688V2.73438C17.9688 2.08828 17.443 1.5625 16.7969 1.5625H16.4062V1.17188C16.4062 0.525781 15.8805 0 15.2344 0H4.29688C3.78828 0 3.35859 0.327734 3.19688 0.78125H0V3.125H3.125V4.75938C2.67148 4.92109 2.34375 5.35078 2.34375 5.85938V8.59375H0V14.8438H2.34375V15.2344C2.34375 15.8805 2.86953 16.4062 3.51562 16.4062H15.2344C15.743 16.4062 16.1727 16.0785 16.3344 15.625H16.7969C17.3055 15.625 17.7352 15.2973 17.8969 14.8438H19.2711L21.0938 13.4766V12.8906H22.6562V12.1094H24.2188V9.76562ZM15.625 1.17188V1.5625H14.0625V4.6875H5.46875V0.78125H15.2344C15.4496 0.78125 15.625 0.95625 15.625 1.17188ZM4.29688 0.78125H4.6875V4.6875H3.90625V1.17188C3.90625 0.95625 4.08164 0.78125 4.29688 0.78125ZM0.78125 2.34375V1.5625H3.125V2.34375H0.78125ZM2.34375 9.375V10.3734C2.11289 10.2391 1.84844 10.1562 1.5625 10.1562C1.27656 10.1562 1.01211 10.2391 0.78125 10.3734V9.375H2.34375ZM2.34375 11.7188C2.34375 12.1496 1.99336 12.5 1.5625 12.5C1.13164 12.5 0.78125 12.1496 0.78125 11.7188C0.78125 11.2879 1.13164 10.9375 1.5625 10.9375C1.99336 10.9375 2.34375 11.2879 2.34375 11.7188ZM0.78125 14.0625V13.0641C1.01211 13.1984 1.27656 13.2812 1.5625 13.2812C1.84844 13.2812 2.11289 13.1984 2.34375 13.0641V14.0625H0.78125ZM15.625 15.2344C15.625 15.45 15.4496 15.625 15.2344 15.625H5.46875V6.64062H4.6875V15.625H3.51562C3.30039 15.625 3.125 15.45 3.125 15.2344V5.85938C3.125 5.64375 3.30039 5.46875 3.51562 5.46875H13.2812V14.8438H14.0625V5.46875H15.2344C15.4496 5.46875 15.625 5.64375 15.625 5.85938V15.2344ZM17.1875 14.4531C17.1875 14.6687 17.0121 14.8438 16.7969 14.8438H16.4062V5.85938C16.4062 5.21328 15.8805 4.6875 15.2344 4.6875H14.8438V2.34375H16.7969C17.0121 2.34375 17.1875 2.51875 17.1875 2.73438V14.4531ZM20.3125 13.0859L19.0105 14.0625H17.9688V7.8125H19.0105L20.3125 8.78906V13.0859ZM21.875 12.1094H21.0938V9.76562H21.875V12.1094ZM23.4375 11.3281H22.6562V10.5469H23.4375V11.3281Z" fill="#616161"/>
</svg>

<svg width="25" height="17" viewBox="0 0 25 17" fill="none" xmlns="http://www.w3.org/2000/svg"><path d="M24.219 9.766h-1.563v-.782h-1.562v-.586L19.27 7.031h-1.302V2.734c0-.646-.526-1.171-1.172-1.171h-.39v-.391C16.406.526 15.88 0 15.233 0H4.297a1.17 1.17 0 00-1.1.781H0v2.344h3.125v1.634a1.17 1.17 0 00-.781 1.1v2.735H0v6.25h2.344v.39c0 .646.526 1.172 1.172 1.172h11.718a1.17 1.17 0 001.1-.781h.463a1.17 1.17 0 001.1-.781h1.374l1.823-1.367v-.586h1.562v-.782h1.563V9.766zm-8.594-8.594v.39h-1.563v3.125H5.47V.781h9.765a.39.39 0 01.391.39zM4.297.782h.39v3.905h-.78V1.172a.39.39 0 01.39-.39zM.78 2.343v-.781h2.344v.78H.781zm1.563 7.031v.998a1.547 1.547 0 00-.781-.217c-.286 0-.55.083-.782.217v-.998h1.563zm0 2.344a.782.782 0 11-1.564-.002.782.782 0 011.564.002zM.78 14.063v-.999c.231.134.496.217.781.217.286 0 .55-.083.782-.217v.998H.78zm14.844 1.171a.39.39 0 01-.39.391H5.468V6.641h-.782v8.984h-1.17a.391.391 0 01-.391-.39V5.858a.39.39 0 01.39-.39h9.766v9.375h.781V5.469h1.172a.39.39 0 01.391.39v9.375zm1.563-.78c0 .215-.176.39-.391.39h-.39V5.859c0-.646-.527-1.171-1.173-1.171h-.39V2.344h1.953a.39.39 0 01.39.39v11.72zm3.125-1.368l-1.302.976h-1.042v-6.25h1.041l1.302.977v4.297zm1.562-.977h-.781V9.766h.781v2.343zm1.563-.78h-.782v-.782h.782v.781z" fill="#616161"/></svg>
